!!!OTL: AUF MATROSEN DIE ANKER GELICHTET
!!!ARE: Europa, Mitteleuropa, Deutschland
!!!SCT: F0754
!!!YEM: Copyright 1995, estate of Helmut Schaffrath.
**kern
*ICvox
*Ivox
*M4/4
*k[]
*C:
{8G
8G
=1
4c
8c
8c
4c
8B
8c
=2
4d
4G}
{4G
8G
8G
=3
4G
8r
8G
4f
8e
8d
=4
4d
4c
2r}
=5
{2c
4B
4B
=6
2A
2r}
=7
{2G
4A
4B
=8
2c}
{8d
8c
8B
8c
=9
4d
8d
8d
8e
8d
8c
8d
=10
2e}
{8d
8f
8e
8d
=11
4c
8c
8c
8c
8B
8A
8B
=12
2c
4r}
==
!!!AGN: Staende -, Matrosen - Lied
!!!ONB: ESAC (Essen Associative Code) Database: FINK
!!!AMT: simple quadruple
!!!AIN: vox
!!!EED: Helmut Schaffrath
!!!EEV: 1.0
*-
